src/mobile/src/icons/logo-compact.svg

<?xml version="1.0" encoding="utf-8"?>
<!-- Generator: Adobe Illustrator 27.7.0, SVG Export Plug-In . SVG Version: 6.00 Build 0)  -->
<svg version="1.1" id="Layer_1" xmlns="http://www.w3.org/2000/svg" xmlns:xlink="http://www.w3.org/1999/xlink" x="0px" y="0px"
	 viewBox="0 0 413 338" style="enable-background:new 0 0 413 338;" xml:space="preserve">
<style type="text/css">
	.st0{fill-rule:evenodd;clip-rule:evenodd;}
</style>
<g>
	<path shape-rendering="optimizeQuality" class="st0" d="M38.5-0.5c41.7,0,83.3,0,125,0c37.5,8.7,62.7,31.3,75.5,68
		c10.5,47.6-4,85.4-43.5,113.5c-7.9,4.6-16.2,8.1-25,10.5c25.7,32.7,51.3,65.3,77,98c-21,1.2-42,1.3-63,0.5c-14-2.2-26.3-7.8-37-17
		c-4.8-4.8-9.7-9.7-14.5-14.5c-9.3-12.3-19-24.3-29-36c-0.3,34.5-0.6,69.2-1,104c-1.6,5.1-4.8,8.8-9.5,11c-4.3,0-8.7,0-13,0
		c-19.6-12.5-39.3-25-59-37.5c-10.9-8.7-17.6-19.9-20-33.5c0-79,0-158,0-237C4.1,17.5,11.1,9,22.5,4C28,2.5,33.3,1,38.5-0.5z
		 M19.5,42.5c3.4,10.3,9.4,18.8,18,25.5c11.6,8.6,23.9,15.9,37,22c7,5.1,11,11.9,12,20.5c0.3,70.2,0,140.2-1,210
		c-17.6-11.2-35.3-22.3-53-33.5c-7.7-5.6-12.2-13.1-13.5-22.5c-0.2-17.7-0.7-35.4-1.5-53C18.2,155.2,18.8,98.8,19.5,42.5z
		 M75.5,69.5c25.3-0.2,50.7,0,76,0.5c1.8,1.1,3.8,1.6,6,1.5c0,0.7,0.3,1,1,1c3.6,1.8,6.9,4.2,10,7c8.6,13.2,7.6,25.7-3,37.5
		c-3.7,2.5-7.7,4.5-12,6c-16.3,1.4-32.4,1.9-48.5,1.5c0.3-13-2.7-25.4-9-37C90.3,80.8,83.5,75.6,75.5,72
		C74.4,71.2,74.4,70.4,75.5,69.5z"/>
</g>
<g>
	<path shape-rendering="optimizeQuality" class="st0" d="M410.5,89.5"/>
	<path shape-rendering="optimizeQuality" class="st0" d="M410.5,76.5"/>
	<path shape-rendering="optimizeQuality" class="st0" d="M407.6,119.3c-1.2,9.1-4.4,19.1-12,29.3c-1.8,2.6-10.2,11.9-11.1,12.4
		c-25.3,22.7-51.6,44-79,64c-0.6,0.7-0.9,1.6-1,2.5c21.4,28,43.1,55.8,65,83.5c-22,0.9-44,0.6-66-1c-7.1-1.6-13.8-4.2-20-8
		c-7.8-5.3-15.1-11.1-22-17.5c-16.9-20.8-34.1-41.4-51.5-62c-1.7-3.3-7.1-6.7-1.2-10.9c0.8-0.6,173-138.9,199.2-161.1"/>
	<path shape-rendering="optimizeQuality" class="st0" d="M410.5,108.5"/>
</g>
<path class="st0" d="M381.8,72.7"/>
<path class="st0" d="M218.1,209.8"/>
<path class="st0" d="M235.7,164.7"/>
</svg>

<?xml version="1.0" encoding="UTF-8"?>
<!DOCTYPE svg PUBLIC "-//W3C//DTD SVG 1.1//EN" "http://www.w3.org/Graphics/SVG/1.1/DTD/svg11.dtd">
<svg xmlns="http://www.w3.org/2000/svg" version="1.1" width="413px" height="338px"
  style="fill-rule: evenodd; shape-rendering: geometricPrecision; text-rendering: geometricPrecision; image-rendering: optimizeQuality; clip-rule: evenodd"
  xmlns:xlink="http://www.w3.org/1999/xlink">
  <g>
    <path style="opacity: 1" fill="#000000" shape-rendering="optimizeQuality"
      d="M 38.5 -0.5 C 80.2 -0.5 121.8 -0.5 163.5 -0.5 C 201 8.2 226.2 30.8 239 67.5 C 249.5 115.1 235 152.9 195.5 181 C 187.6 185.6 179.3 189.1 170.5 191.5 C 196.2 224.2 221.8 256.8 247.5 289.5 C 226.5 290.7 205.5 290.8 184.5 290 C 170.5 287.8 158.2 282.2 147.5 273 C 142.7 268.2 137.8 263.3 133 258.5 C 123.7 246.2 114 234.2 104 222.5 C 103.7 257 103.4 291.7 103 326.5 C 101.4 331.6 98.2 335.3 93.5 337.5 C 89.2 337.5 84.8 337.5 80.5 337.5 C 60.9 325 41.2 312.5 21.5 300 C 10.6 291.3 3.9 280.1 1.5 266.5 C 1.5 187.5 1.5 108.5 1.5 29.5 C 4.1 17.5 11.1 9 22.5 4 C 28 2.5 33.3 1 38.5 -0.5 Z M 19.5 42.5 C 22.9 52.8 28.9 61.3 37.5 68 C 49.1 76.6 61.4 83.9 74.5 90 C 81.5 95.1 85.5 101.9 86.5 110.5 C 86.8 180.7 86.5 250.7 85.5 320.5 C 67.9 309.3 50.2 298.2 32.5 287 C 24.8 281.4 20.3 273.9 19 264.5 C 18.8 246.8 18.3 229.1 17.5 211.5 C 18.2 155.2 18.8 98.8 19.5 42.5 Z M 75.5 69.5 C 100.8 69.3 126.2 69.5 151.5 70 C 153.3 71.1 155.3 71.6 157.5 71.5 C 157.5 72.2 157.8 72.5 158.5 72.5 C 162.1 74.3 165.4 76.7 168.5 79.5 C 177.1 92.7 176.1 105.2 165.5 117 C 161.8 119.5 157.8 121.5 153.5 123 C 137.2 124.4 121.1 124.9 105 124.5 C 105.3 111.5 102.3 99.1 96 87.5 C 90.3 80.8 83.5 75.6 75.5 72 C 74.4 71.2 74.4 70.4 75.5 69.5 Z" />
  </g>
  <g>
    <path style="opacity: 1" fill="#000000" shape-rendering="optimizeQuality"
      d="M 410.5 74.5 C 410.5 75.2 410.5 75.8 410.5 76.5 C 409.2 78.8 409.2 81.2 410.5 83.5 C 410.5 85.5 410.5 87.5 410.5 89.5 C 409.2 90.8 409.2 92.2 410.5 93.5 C 410.5 96.5 410.5 99.5 410.5 102.5 C 409.2 103.8 409.2 105.2 410.5 106.5 C 410.5 107.2 410.5 107.8 410.5 108.5 C 409.2 108.8 409.2 109.2 410.5 109.5 C 410.5 112.8 410.5 116.2 410.5 119.5 C 407.2 135.7 399.6 149.4 387.5 160.5 C 386.4 160.4 385.4 160.5 384.5 161 C 359.2 183.7 332.9 205 305.5 225 C 304.9 225.7 304.6 226.6 304.5 227.5 C 325.9 255.5 347.6 283.3 369.5 311 C 347.5 311.9 325.5 311.6 303.5 310 C 296.4 308.4 289.7 305.8 283.5 302 C 275.7 296.7 268.4 290.9 261.5 284.5 C 244.6 263.7 227.4 243.1 210 222.5 C 208.3 219.2 208.3 215.9 210 212.5 C 211.1 209.9 212.9 208.3 215.5 207.5 C 220.3 204.6 224.9 201.4 229.5 198 C 262.5 170.6 295.9 143.6 329.5 117 C 355.7 94.8 381.8 72.7 408 50.5 C 408.6 58.7 409.4 66.7 410.5 74.5 Z" />
  </g>
</svg>
